X: 4019
T: Blackwater, The
R: polka
M: 2/4
K: Gmajor
|:D>E GA|Bd Bc/B/|AG/A/ BA|AG EG|
D>E GA|Bd Bc/B/|AB/A/ BA|AG GE:|2 AG G2||
g2 eg/e/|dB dB/A/|GA/G/ AB|
[1 AG ED|gf/g/ eg/e/|dB dB/A/|GA/G/ AB|AG G2:|
[2 AG EG|D>E GA|Bd Bc/B/|AG/A/ BA|AG G2||

